src/images/crypto-icon-svg/rdn.svg

<svg xmlns="http://www.w3.org/2000/svg" width="32" height="32" viewBox="0 0 32 32">
  <g fill="none">
    <circle cx="16" cy="16" r="16" fill="#2A2A2A"/>
    <path fill="#FFF" d="M10,6.00570995 L18.1114222,6.00570995 C18.2088221,5.97660997 18.2594104,6.06570992 18.3230185,6.1157099 C19.0917818,6.83160954 19.7679159,7.64450914 20.3690123,8.50660871 C21.2081421,9.7181081 21.8860651,11.0466074 22.3409623,12.4515067 C22.8233899,13.935606 23.0516832,15.5056052 22.9901623,17.0664044 C21.6119871,17.0660711 20.233812,17.0660711 18.8556368,17.0664044 C18.8789929,16.8592045 18.8807819,16.6503047 18.8780984,16.4422048 C18.834666,14.9706055 18.3811602,13.5284062 17.6661656,12.2504068 C16.9008809,10.8810075 15.8326626,9.69970811 14.6191396,8.7188086 C13.2972841,7.65000913 11.8088549,6.80640955 10.2584078,6.12360989 C10.1727357,6.08400991 10.0829887,6.05200993 10,6.00570995 Z M13.0015065,13.3326063 C14.3888916,15.8425384 15.7740239,18.3538038 17.1569034,20.8664026 C17.4897526,21.4720023 17.8264779,22.075602 18.1565442,22.6827017 C16.4359455,23.7854011 14.7209125,24.8968005 13.0005126,26 C13.0017053,21.7775354 13.0020366,17.5550709 13.0015065,13.3326063 Z"/>
  </g>
</svg>

<svg xmlns="http://www.w3.org/2000/svg" width="32" height="32"><g fill="none"><circle cx="16" cy="16" r="16" fill="#2A2A2A"/><path fill="#FFF" d="M10 6.006h8.111c.098-.03.148.06.212.11a14.88 14.88 0 0 1 2.046 2.39 15.153 15.153 0 0 1 1.972 3.946c.482 1.484.71 3.054.65 4.614h-4.135c.023-.207.025-.416.022-.624-.043-1.471-.497-2.914-1.212-4.192-.765-1.369-1.833-2.55-3.047-3.531-1.322-1.069-2.81-1.913-4.36-2.595-.086-.04-.176-.072-.259-.118zm3.002 7.327a4715.11 4715.11 0 0 1 4.155 7.533c.333.606.67 1.21 1 1.817C16.436 23.785 14.72 24.897 13 26V13.333z"/></g></svg>
